wasmegg/rockets-tracker/src/badges/badge-15.svg

<svg xmlns="http://www.w3.org/2000/svg" xml:space="preserve" style="fill-rule:evenodd;clip-rule:evenodd;stroke-linejoin:round;stroke-miterlimit:2" viewBox="0 0 64 64"><path d="M.252-.032C.248-.046.235-.051.222-.049H.221l-.004.001-.012.001-.021.001-.023.001Q.164-.13.16-.216L.159-.314l.005-.098Q.17-.491.171-.57c0-.053-.003-.107.003-.16C.176-.744.162-.755.15-.755a.02.02 0 0 0-.022.014l-.002.003-.044.087-.024.042-.013.021-.008.01-.001.002-.004.004q-.013.018 0 .035c.009.009.027.011.035 0a.5.5 0 0 0 .055-.084v.089C.12-.466.113-.401.111-.336c-.003.097.006.194.001.291L.05-.046a.025.025 0 0 0-.025.024c0 .014.011.025.025.025l.082.001h.006a1 1 0 0 0 .097-.006c.013-.002.02-.018.017-.03" style="fill:#fff;fill-rule:nonzero" transform="matrix(56 0 0 56 13.996 52.888)"/><path d="M.315-.703A.025.025 0 0 0 .34-.728a.025.025 0 0 0-.025-.024L.091-.753a.02.02 0 0 0-.013-.004.025.025 0 0 0-.025.024v.343q0 .011.009.019l.001.001a.03.03 0 0 0 .014.011q.01.002.019-.003h.001l.002-.001.008-.003.018-.006.017-.004.009-.002.005-.001.003-.001.039.001.008.002.004.002.008.004.003.002v.001l.007.006.009.009v.001l.01.015.004.008.002.004v.001q.007.017.011.035l.003.017.001.009.001.006v.002l.003.041-.001.02-.001.006v.003l-.001.006q-.004.02-.011.039l-.002.004-.001.002-.003.007-.01.02-.01.016-.004.005-.001.001-.004.004-.011.012-.006.006H.205L.202-.06l-.014.009-.008.003-.001.001-.003.001-.016.005-.009.002H.146l-.015.001H.13L.124-.04.118-.042H.117l-.01-.006H.106v-.001L.101-.053.095-.06.092-.064.089-.069.083-.08.082-.082.08-.088.077-.101.076-.107v-.002L.075-.122l.001-.007v-.004l.002-.009.002-.006.001-.002.005-.01C.094-.172.089-.187.078-.194.066-.201.051-.196.044-.185c-.046.072 0 .195.092.196a.2.2 0 0 0 .077-.02.2.2 0 0 0 .058-.053.27.27 0 0 0 .05-.16L.31-.306a.2.2 0 0 0-.031-.072.12.12 0 0 0-.07-.048.2.2 0 0 0-.084.004Q.113-.42.102-.416v-.288z" style="fill:#fff;fill-rule:nonzero" transform="matrix(56 0 0 56 29.564 52.888)"/></svg>

<?xml version="1.0" encoding="UTF-8" standalone="no"?>
<!DOCTYPE svg PUBLIC "-//W3C//DTD SVG 1.1//EN" "http://www.w3.org/Graphics/SVG/1.1/DTD/svg11.dtd">
<svg width="100%" height="100%" viewBox="0 0 64 64" version="1.1" xmlns="http://www.w3.org/2000/svg" xmlns:xlink="http://www.w3.org/1999/xlink" xml:space="preserve" xmlns:serif="http://www.serif.com/" style="fill-rule:evenodd;clip-rule:evenodd;stroke-linejoin:round;stroke-miterlimit:2;">
    <g transform="matrix(1,0,0,1,-16.8101,21.8757)">
        <g transform="matrix(56,0,0,56,30.8061,31.0123)">
            <path d="M0.252,-0.032C0.248,-0.046 0.235,-0.051 0.222,-0.049L0.221,-0.049C0.221,-0.049 0.218,-0.048 0.217,-0.048C0.213,-0.048 0.209,-0.048 0.205,-0.047C0.198,-0.046 0.191,-0.046 0.184,-0.046C0.176,-0.045 0.168,-0.045 0.161,-0.045C0.164,-0.102 0.162,-0.159 0.16,-0.216C0.16,-0.249 0.159,-0.281 0.159,-0.314C0.16,-0.347 0.162,-0.38 0.164,-0.412C0.167,-0.465 0.171,-0.517 0.171,-0.57C0.171,-0.623 0.168,-0.677 0.174,-0.73C0.176,-0.744 0.162,-0.755 0.15,-0.755C0.139,-0.755 0.132,-0.749 0.128,-0.741C0.127,-0.74 0.127,-0.739 0.126,-0.738C0.111,-0.709 0.097,-0.68 0.082,-0.651C0.075,-0.637 0.067,-0.623 0.058,-0.609C0.054,-0.602 0.05,-0.595 0.045,-0.588C0.042,-0.585 0.04,-0.581 0.037,-0.578C0.037,-0.578 0.036,-0.577 0.036,-0.576C0.035,-0.574 0.034,-0.573 0.032,-0.572C0.024,-0.561 0.022,-0.547 0.032,-0.537C0.041,-0.528 0.059,-0.526 0.067,-0.537C0.088,-0.563 0.106,-0.591 0.122,-0.621C0.122,-0.591 0.123,-0.562 0.122,-0.532C0.12,-0.466 0.113,-0.401 0.111,-0.336C0.108,-0.239 0.117,-0.142 0.112,-0.045C0.091,-0.046 0.07,-0.046 0.05,-0.046C0.036,-0.046 0.025,-0.035 0.025,-0.022C0.025,-0.008 0.036,0.003 0.05,0.003C0.077,0.003 0.105,0.004 0.132,0.004L0.138,0.004C0.17,0.004 0.203,0.003 0.235,-0.002C0.248,-0.004 0.255,-0.02 0.252,-0.032Z" style="fill:white;fill-rule:nonzero;"/>
        </g>
        <g transform="matrix(56,0,0,56,46.3741,31.0123)">
            <path d="M0.315,-0.703C0.329,-0.703 0.34,-0.714 0.34,-0.728C0.34,-0.741 0.329,-0.752 0.315,-0.752C0.24,-0.752 0.165,-0.753 0.091,-0.753C0.087,-0.756 0.082,-0.757 0.078,-0.757C0.064,-0.757 0.053,-0.746 0.053,-0.733L0.053,-0.39C0.053,-0.383 0.057,-0.376 0.062,-0.371C0.062,-0.371 0.063,-0.371 0.063,-0.37C0.066,-0.365 0.071,-0.361 0.077,-0.359C0.084,-0.357 0.09,-0.359 0.096,-0.362L0.097,-0.362C0.098,-0.362 0.098,-0.362 0.099,-0.363C0.101,-0.364 0.104,-0.365 0.107,-0.366L0.125,-0.372C0.13,-0.373 0.136,-0.375 0.142,-0.376C0.145,-0.377 0.148,-0.378 0.151,-0.378C0.153,-0.378 0.154,-0.379 0.156,-0.379C0.156,-0.379 0.158,-0.379 0.159,-0.38C0.17,-0.381 0.18,-0.381 0.191,-0.38C0.191,-0.38 0.196,-0.379 0.198,-0.379C0.2,-0.378 0.203,-0.377 0.206,-0.377C0.207,-0.376 0.208,-0.376 0.21,-0.375C0.212,-0.374 0.215,-0.372 0.218,-0.371C0.219,-0.37 0.22,-0.369 0.221,-0.369L0.221,-0.368C0.224,-0.366 0.226,-0.364 0.228,-0.362L0.237,-0.353L0.237,-0.352C0.241,-0.347 0.244,-0.342 0.247,-0.337C0.248,-0.335 0.249,-0.332 0.251,-0.329C0.251,-0.328 0.252,-0.327 0.253,-0.325L0.253,-0.324C0.258,-0.313 0.261,-0.301 0.264,-0.289C0.265,-0.283 0.266,-0.278 0.267,-0.272C0.267,-0.269 0.268,-0.266 0.268,-0.263C0.269,-0.261 0.269,-0.259 0.269,-0.257L0.269,-0.255C0.271,-0.241 0.272,-0.228 0.272,-0.214C0.272,-0.207 0.271,-0.201 0.271,-0.194C0.271,-0.192 0.27,-0.19 0.27,-0.188L0.27,-0.185C0.269,-0.183 0.269,-0.181 0.269,-0.179C0.266,-0.166 0.263,-0.153 0.258,-0.14C0.257,-0.139 0.257,-0.137 0.256,-0.136C0.256,-0.135 0.256,-0.135 0.255,-0.134C0.254,-0.131 0.253,-0.129 0.252,-0.127C0.249,-0.12 0.245,-0.113 0.242,-0.107C0.239,-0.102 0.235,-0.097 0.232,-0.091C0.231,-0.09 0.23,-0.088 0.228,-0.086L0.227,-0.085C0.226,-0.083 0.225,-0.082 0.223,-0.081C0.22,-0.076 0.216,-0.072 0.212,-0.069L0.206,-0.063L0.205,-0.063C0.204,-0.062 0.202,-0.061 0.202,-0.06C0.197,-0.057 0.193,-0.054 0.188,-0.051C0.185,-0.05 0.183,-0.049 0.18,-0.048L0.179,-0.047C0.178,-0.047 0.177,-0.046 0.176,-0.046C0.171,-0.044 0.165,-0.042 0.16,-0.041C0.157,-0.04 0.154,-0.04 0.151,-0.039L0.146,-0.039C0.141,-0.038 0.136,-0.038 0.131,-0.038L0.13,-0.038C0.128,-0.039 0.126,-0.039 0.124,-0.04C0.122,-0.04 0.12,-0.041 0.118,-0.042L0.117,-0.042C0.114,-0.044 0.11,-0.046 0.107,-0.048L0.106,-0.048L0.106,-0.049C0.104,-0.05 0.103,-0.052 0.101,-0.053C0.099,-0.055 0.097,-0.057 0.095,-0.06C0.095,-0.061 0.093,-0.063 0.092,-0.064C0.091,-0.065 0.09,-0.067 0.089,-0.069C0.087,-0.073 0.085,-0.076 0.083,-0.08C0.083,-0.081 0.083,-0.081 0.082,-0.082C0.082,-0.084 0.081,-0.086 0.08,-0.088C0.079,-0.093 0.078,-0.097 0.077,-0.101C0.077,-0.103 0.076,-0.105 0.076,-0.107L0.076,-0.109C0.075,-0.113 0.075,-0.118 0.075,-0.122C0.075,-0.124 0.075,-0.127 0.076,-0.129L0.076,-0.133C0.077,-0.136 0.077,-0.139 0.078,-0.142C0.079,-0.144 0.079,-0.146 0.08,-0.148C0.08,-0.149 0.081,-0.15 0.081,-0.15C0.082,-0.154 0.084,-0.157 0.086,-0.16C0.094,-0.172 0.089,-0.187 0.078,-0.194C0.066,-0.201 0.051,-0.196 0.044,-0.185C-0.002,-0.113 0.044,0.01 0.136,0.011C0.162,0.011 0.189,0.003 0.213,-0.009C0.236,-0.022 0.255,-0.041 0.271,-0.062C0.305,-0.108 0.321,-0.165 0.321,-0.222C0.32,-0.25 0.316,-0.279 0.31,-0.306C0.304,-0.332 0.294,-0.357 0.279,-0.378C0.261,-0.401 0.238,-0.42 0.209,-0.426C0.181,-0.432 0.152,-0.429 0.125,-0.422C0.117,-0.421 0.11,-0.418 0.102,-0.416L0.102,-0.704C0.173,-0.704 0.244,-0.703 0.315,-0.703Z" style="fill:white;fill-rule:nonzero;"/>
        </g>
    </g>
</svg>
